X:1
T:Title
%%score 1 { 2 | ( 3 4 5 ) }
L:1/8
M:4/4
K:D
V:1 treble nm="Akkordion"
V:2 treble nm="Grand Piano"
V:3 bass 
V:4 bass 
V:5 bass 
V:1
 z4 z2[Q:1/4=94] AA | AA A2 A2 A2 | ABAF D2 z2 | AAAA A2 A2 |[M:7/8] BA F2 E3 |[M:1/8] E | %6
[M:4/4] D2 D2 D2 DD | D2 D2 D3 D | d2 d2 dd d2 | e e2 e d4 | z8 | z8 | z8 | z8 | z8 | z8 | z8 | %17
[M:3/4] z6 |] %18
V:2
 z4 z2 A2 | [A,DF]2 [A,DF]2 [A,DF]2 [A,DF]2 | [A,DF]2 [A,DF]2 [A,DF]2 [A,DF]2 | %3
 [A,DF]2 [A,DF]2 [A,DF]2 [A,DF]2 |[M:7/8] [A,DF]2 [A,DF]2 E3 |[M:1/8] z |[M:4/4] D2 D2 D2 D2 | %7
 D2 D2 D4 | [Fd]4 [Dd]4 | [Ge]4 [Fd]4 | [Af]2 [Fd]4 [DFA]2 | [DGB]4 [FA]3 [DFA] | %12
 [Fd]2 [FA]2 [Fd]3 [FA] | [GB][FA] [DF]2 [CE]2 [CF][CE] | DD D2 D2 D2 | D2 D2 D2 [FA][FA] | %16
 dd d2 [Ad][Ad] [Ad]2 |[M:3/4] e e2 e [Fd]2 |] %18
V:3
 z4 z2 F2 | D,2 A,,2 D,2 A,,2 | D,2 A,,2 D,2 A,,2 | D,2 A,,2 D,2 A,,2 |[M:7/8] D,2 A,,2 [C,G,A,]3 | %5
[M:1/8] z |[M:4/4] [D,F,A,]2 [D,G,B,]2 [D,F,A,]2 [D,G,B,]2 | [D,F,A,]2 [D,G,B,]2 [D,F,A,]4 | %8
 [B,,B,]4 [F,A,]4 | [A,C]4 [D,D]4 | z2 A,4 z2 | G,2 B,2 D3 D, | [D,A,]2 [D,D]2 [D,A,]3 [D,D] | %13
 [D,D][D,D] [D,A,]2 [A,,A,]2 [A,,A,][A,,G,] | [D,F,][D,F,] [D,G,B,]2 [D,F,A,]2 [D,G,B,]2 | %15
 [D,F,A,]2 [D,G,B,]2 [D,F,A,]2 [D,D][D,D] | [B,DF][B,DF] [B,DF]2[K:bass] [F,D][F,D] [F,D]2 | %17
[M:3/4][K:treble] [A,CA] [A,CA]2 [A,CG][K:bass] [D,D]2 |] %18
V:4
 x8 | x8 | x8 | x8 |[M:7/8] x7 |[M:1/8] x |[M:4/4] x8 | x8 | x8 | x8 | D2 z2 F,2 D,2 | x8 | x8 | %13
 x8 | x8 | x8 | x4[K:bass] x4 |[M:3/4][K:treble] x4[K:bass] x2 |] %18
V:5
 x8 | x8 | x8 | x8 |[M:7/8] x7 |[M:1/8] x |[M:4/4] x8 | x8 | x8 | x8 | D,4 z4 | x8 | x8 | x8 | x8 | %15
 x8 | x4[K:bass] x4 |[M:3/4][K:treble] x4[K:bass] x2 |] %18

